X: 1
T: Pride Of Leinster, The
M: 6/8
L: 1/8
R: jig
K: Gmaj
|:E|DGG BAG|dBG GBd|edg dBG|AcB AGE|
DGG BAG|dBG GBd|edg dBG|AGE G2:|
|:z|dgg bgg|aga bge|dgg bgg|aba age|
dgg bgg|aga bgd|edg dBG|AGE G2:|
